-----BEGIN PGP PUBLIC KEY BLOCK-----

mQINBGcvtqsBEACdLvJ2gcruxPsFKFK7mz8NrMIuZut3LRKfPXSLsd6qmTCluACI
Z6E3E1fVFFcUQztMYXTXHAqATmMASK3MrXdSgF6iWNaEDWluKqPcDMIlbd0vMosT
QtYfcNGIp5rofMPQDfwIktrrkda+w3OKneS4eAhTpSmnDThRdAcPjmxNrjC8JP3Z
WO1Dh7TNCu0gOlTFLo1uO5LDiG/EtcK+UL+nQ6PKraWfGoSkDLvVc+ZuodlL4PAC
0KJyP5M1ahwSokhH7Sy43GWv6Kv8la6B4rXST6A15pN6anIMjOmvXo8tkQHi0WEw
CuRmIQxgwToO33YxjztcnPnoRD27HM5oZhs+gflxAK0b+JtiNXVNOmK9IspcoFDQ
Gml8EXDmZknomIHhl52IBof7uJOoRMbOf4KbJb8vlZC1pGgvKXpkXp1wmmXpfP1f
Lxj/ot950MlXq/FmwwSD4OXmChPRLvlZ47spqw2NKODmK3k03qGW8yyj30Z0oOMC
a99j4xcj2Jco+IntxR8gzLZKIusGQD3rwRUHKWFOZofgrOwm50YZhtxlbbkgNz7a
dM4J0stWarC8EtG4w5T2v+3KeyXcwXF8Yn7HbNyPYDcXdWhqpX8dHhLcSQyM3n9x
lAycCsosPR96Pu+6Ap7+e4kRYZ1b9uOlFHTzNORu5+hIXvUWBoiMBIWjRQARAQAB
tClBbGVrc2FuZHIgTWlraGFpbG92IFlLQSA8aWFtQGZpZG9ub2RlLm1lPokCTAQT
AQoANhYhBIrqvtHqLW44j7YApcqr/5nXpMyNBQJnL7arAhsBBAsJCAcEFQoJCAUW
AgMBAAIeBQIXgAAKCRDKq/+Z16TMja0vD/9ZM/U/d5vXAVT+/J3SfqCY66NKzlku
3umA8lRlCoKGH6dCnJuNevYNb/CAPwb1+Q7Qzi0XW2yRjHQ7EA3UGvl3c0LKvFUR
/w8kTGCCf0tjcLjJONepH5spswkbGJwkMvv1sRQvMJ8LSNkHH5bgAz/s3Pw2JTkx
NFvPmrYTkccSVUjex1dOzX64B9hho0M9Ngb9+tIVkVUszjEaGv9YEd1nxjh72ts3
pFZXxfbQEyPiH9PQABljCLy6Ti04DC4+pnxpoXoIKFk55iPF+0utrpCwoTpNNt56
78HzYZLsobS0NT2rsCW6AzZXFpzR1v8tOGH3pN+RpDJp/z6b5BVR+kSyQMdL9Xg2
4k3X5nYb8pToCqreugL4xxGmzCNjQiqVd80LvKaHv4B6p+Wuk6KasTKwq5X5NUcN
zstBdW/bMYj8CVKGlH4rfeS+PYItMXkt5qugmOurG9SMuIYhYFiMfBL+6UaAjF0J
ebu6PliKg2HqzVTddbeaRYZ89HoiijeUBHoCXb3hOhLxsSxs3AYtjd0jrXEjxf8r
k/Rk5+cOMnLDHIlVYYjmoMp1UxyrVz+l+VI4kpoLvg/vkSxnuAUW1s0TibUu7Nj7
BUC0i9WNTh11I2H2u0WLOZvbgkoojNukgYCF3u7o1SjW9UEKZ6jo7aGREnFYZYL3
4hy7dSTMna7CeLkCDQRnL7baARAAvPxrKFJJJnrrEU+GGgpuC7P05k24tddPMAg+
5XlHdNVHjOK0OjU1e88u+lD6s/vf9I3p+oeudzdSHwDxYxEyKxr9kVwGA4dbN3ae
NE2I0Fa2C3iC88XLcrrlTSfapqLlSKhs8QdP3L8ZbOotZ0LPstrseTnOk/oW4YFG
ztSRYozA2i5klGW2EfoG4NjpGmV/L1Qpf5jKBOSbBNlDgHU+a+u7MB0NAAxXZ3il
Z8ueewnqciU1GcakVWFSssqgk0eBt4VpRKZr+KEOgHtrFfgE4HkaK5+xgx8C4I1J
/D/lFRnqeQxDQqZTcYsvfvkxS7wMyaLAEwao8xscXg4rY4k2hxEgeGKtvDMb61S1
XrMrTD4M9c6TeTCeM0Iu/jhc3DoSFJktDl3SLMvBPmwYyHczHayY81UCfQjcahvG
Aq9SnXORKLGDklwbCDlZCiotJG45/nyUa6ekK0yVmQ19R8BDPq3gJ8I2b5Z8M/jt
iHtzrJF4lAhZFLSvXNrE2Xa0BTR/9uX5B3YGFGoATjD4fbPfO2FOCdj+aXmGzuMZ
5oO48Geky866JTvdi6/WKX0qYLEBMQcUjnnPRiYSnEH/R1OhS99u7QHtW0ViR81K
dUvnqkTtSqSq6YZzJ8vEIubriRis1qI4hwefnHEh1KqeTOXc4+OWWl3KlpNJ+QMi
BWf6G4UAEQEAAYkEcgQYAQoAJhYhBIrqvtHqLW44j7YApcqr/5nXpMyNBQJnL7ba
AhsCBQkJZgGAAkAJEMqr/5nXpMyNwXQgBBkBCgAdFiEEZ2vYt98JtLgIS5JuW6Qo
7O6wp/gFAmcvttoACgkQW6Qo7O6wp/gdLBAAi4R7jWRGsoAw49YeNHNZgFU/J2Bz
8lHP2+C65/svjfJvFs+JovUP7i/NnS7gs2ERFccNgUUCWuNrO+L+YioZTVyitaSX
OiynJExFVlJyVLrwLBU8rfxjabGxv75NB+kKK4sljD6JmKyaQFiYjsY20WSZraGr
kx3zTsV4JHdIddMXXHngcNSYswKYcUy1cNCn/i5SUISrJXlOTN0y3AT+yoj3bqPR
egpqvt6mlxEwQlj8a59o/ZLjdB3ihIH/WaEahlmeSHYb7KmltXlSmLkNv2/hBX8+
ws+8CMc6y/muW6WFqs1tJtfDlsp2bZISR9E9llB2mFiYUMu/1GZ6DHxB0JTrmoWV
gZ4vC+VlIaYjU8I0N7MO/csCf+sO0bp6qW8suvT2GI78QMReo9x/Y7Q/0SSnwdMn
4gqQFppVoOT2XRaDpJRUkQGyUFZ6m6Q6JH6As8HdN56COhZw7/mRhmQq0qBk+7nd
4qsP1xQQS06Q7xswckYvL8SaE3o3HSAY6YR9CNFlhcDqdtNFkG5jmxmJ/LbZWNS3
IumhUcO1B1xQnVTv2QBvyhw7s10giqT+5C2lFMFcmUwJ+nI7G/qb62PYDZ3QaF7C
zaIBUElG0quV+lem0aJZHl++6U8z7NYoSdJ8TlzvxgFPXUr2EzxuGBG2+O7xSBrP
6W1tePFBA8nTbuCiURAAiMcXh1yJ/ztPhQt2aqYeL84RnJfa2UHspE96eTBI4ryn
Wr4uImUE74Fjlb49YN+INqnebFgIw1n80SLWSCJx4xdcr8naS9DSQZOl/HA3wG+G
ZDSl0b81fB7L4K364AYYtc0PLm1lUq49UhOiSJISY+n0Gzjy1mz683Uj71ub9Qxz
Z9m+FBuzPDMJMPa6y4ykQBWs1C4cRQuNK77wfFaEVx5raY5RF5uxiysqG0JOcLLl
5EQ5K2W6OeL4i5Ve/l1kUf3pRSb0tV4Fw1yQosi0D1oBCL6kQl3UE040y8cwjSGC
Uqd5uT5KbveI5Undr8V+rL/qCxxbZxByiDbg2qUa4FEeTHYbJObBro+kzI3+Wttu
HAiX2w5ixmZRna8Ly5e1lBGg1iopaFzATgVwsSyNtODvjMELRSkCCauvDnGsdgRP
ZG3KMhVNEwEQJTIo/DAdF3cMwMuznPN4eE3YTiUxDNugyNP4QvQ0ZCJus2t4SBcw
qkwaFRWyY8zcJjuvioMIQumE5KhOvOFN/HrNj7RxsYLDZo9kPJIRb1jSwKTjyrBJ
hobnTQL+I+CVCQRN4ji+R/z6ir3quAEHdiHZ7Fca1Jm/ZilIXeFEIFIbrG09dmxi
/5iV34W0xy4NTNT+Q4BAhDAXbqMi7mc1Dy1DTpae+kqVagCdVcn/TEtrnR/C38C5
Ag0EZy+23AEQAMWjl10ZzuLmQ1XkmEbALK+A84QNDmV7nhORguJySpozkHQPzptP
j9x+YSlI5GdyXy8E9qnmatCAAjvog64qnRi9R2kdL6h21Y69YNY4tcXcrTtTDoWT
uBqtJxBzMW9kpRfc6efdK414XKoH4pRXZ+x7Ym8eGCV9b2BTxa/oWZ+PabkbyiHA
OhoSxyj6NaWKS1VmxEbLmTtiMtj8YOIHS7KPjAcIT/YjmAQxDZLuNoXFiuGZ/YJa
+xBvlZQ2aWk/omdZKzr/xrI8vK+8gTJ5n1QOK2Xc8ls54lH8Ybv8u4y5t74TLCMJ
PAhrxUB1L7DQMkMc1OG5IykhCFwI/N9RguDhD4+0qXUfCY29/v1sI0h8uW3jDrou
86P8XJtgCugkbXp+Y4En6Ew6Npru99KFMskLA3Kq7QQW+vL2CEvliMbNTFzd0XJ3
wmVieDYuz9jy062qXpFqmZBKial57PmDfMh01NM7wqpwhtkeifmrUBhwUPwdSLpV
RGmlQ7UX00SFd0v4YXEvg+KzGEfN9vwS3TuNjcAp3bRpWpN0VQL0NBeyjXN24vzP
4IR9xh8Q6NVS4yKbB9L4ZV2hyvPzJlZ7pJorhtmZ6AVHcNcTsrQeAxHrJKVv2/L9
gvO+KkDz/c+7uryXzqFIcoj5BjPeR1mLtH5cAvPtaxbAgBsSZQc8ZqZNABEBAAGJ
AjwEGAEKACYWIQSK6r7R6i1uOI+2AKXKq/+Z16TMjQUCZy+23AIbDAUJCWYBgAAK
CRDKq/+Z16TMjVEdD/4slPCeNjG0K54mA+VtEYEiM6qYtJWXLYj1rRxfnGIsbxNk
MIWWc2fBMtjc989gxIzHfXCde9Ke5PnPB19XB3MHaN7Zg3x4Hbw8m4GMo7psbOXq
3pbAoCeuv63nlwXItVkZOUi1bNA6S9Yt+Udm4zv+W0UhEOvF8NOkEqZBxmc2KcKT
2h9oQls9HAogySI8P28pQcZ39W6AZIOUOTaO4RZNAvcpOQd8fVKuWBddosp7Epkd
CNCrSpVbRkgVrlzaRv4nqU1p4wU0pg/ylWNbnnXnp+MePLKYApGrmMObMp40jU7B
AbASRDfoCQeScohfT1PkTsVTZ32nCwRCChKwSntCFWmOoXbfhdvDj0jH3lPr5Ebj
T+DWQHViewJT/cCpERUR531LvOKB4vhibGVPqCwNxwp8GFOL1+ARoNjvpTIKaDEk
m43QzKR8969tHSNDpS/RKj/BP7Suca6lGIlkdtf0QKhx1Iv+UBP7glijvdgsBdKe
/QYmlYZIQKNVljfkieg6GeUm0xN0maOu5rSkrSe57LKz9GF44pcgRIHOzqUc3QiL
EjcgXLB+sRgQbcrpCU+8OVHXqNZB8h1hDER4NDxnapHnBuKNvrUa/J9/JU/OgS7k
iS1ld5ukVy9vqpEU5+g3q0nyaWiTolFCrIsTgrD+uzl2sXlWjZkx8BviGKaMcrkC
DQRnL7beARAAuSxMIkwIFqm409iABSYkj2V1++MmLTDFoxqk32HCdLjreHYRoZYM
5ShLfqILMuruo2Vo1VCkt7rHX6Lj+xI0wRxPBMMi9iPBdVssQnHMXgoM3wsPpiJR
OGjAop9UDAVuTtBcWIvR9P4lJXwxQhTS9T28asxPXzYXAGBFR3DZWD01diXRUrGO
RxQxt8w0bRXddy6mr6UuHN5z8BFPN0cddsWxTkLfJA7vBMJsRt2l2tH+P031fmcz
J5pta95Ss/Eh1cPRYsr5OIq+8++8BqygammfXtk2cYcalrf8V543YOqoUaV0mm7f
OKk2aTyQW6Taex2GGp9rpjvj7w6F4jcSyQjxstXIZLtNokaLQkg5mJrsb65chOTv
3hESE5MI3wN79g0oC17OpmqitdpaySx7ZxULgZ3BlSbC4ozuBiVIlbWhb4M5LWvL
bdtJiGhKrShXTjbVUXCBUE6VENHlPlBWKh4KtxsseZzrnVmUHXN4zw3sGZXkAGT8
3Bj0/CgciEWfz4IWGJWPHSrITYE4+1jui32Mo6Z5CnplGq+veJa0yLsLSOG/nlvD
Za6VKrCVGZi9v3q64I7v/6uEAs9Ns0CoSSntFehNpPhNshOemC3/sLcmrMiYnQ4D
IXJT4Ng/gqG0ffeIGiULivh6tdOFBTcLhKY8v6wntwJgHRHo+Q5yLlsAEQEAAYkC
PAQYAQoAJhYhBIrqvtHqLW44j7YApcqr/5nXpMyNBQJnL7beAhsgBQkJZgGAAAoJ
EMqr/5nXpMyNqI4P/0RQ6PWbzmbrnMTkOWqI7zAxtGtA9UhH5mG2+rSNbZekluwj
Jq5n5ky5RCauors0ZUu56RL6vE5rtcjKw0c9x9KY1G3j9TfoV4hVc8yiIWgyl5gr
EH0guZjupruMPI6aNrW94r5+6Mx6BcUPynCLh7tHpEuFWu1H5I5c/JVn3yKR9CUt
RoQr0LCek+4qmsgGEB02HT0oH4/QcZzn8ONF6w+lkWskfhZ8EKUIzu3K0DV+D4G1
WjSZGgobvRLxSU9l5A/cmFbeL7qEbOSGJlkacsILwU9CuUDAi4jGS+zOQx3sQAbP
R7QSJqt2MsqE0Y0OQ131gYBPE0Kd0ruoJdiP7Quy621A5ExUP6I92JpBLkka8rb9
eId69ZQ9PJS3i6hSsZyPEv6VoW0A58fHBzuF4YtCF597C4mKi0HQIj7YFp6yHu1k
Z7bHL+zr9pmbEX/nJWzO51BYnsYCoCnVotfSkufVy47OUTRffgvpLkbvVcjyh2kK
4NBKQEjF7SxRlifBmY69xxbfNeMfTwlfDfWy4uRC1qasRBaoYDqCJtJBjh1PDcOl
oxZsiJmU80t5v3HARN53J9YZ6WPNxLcVvRkAAYjHD7ggR+VI+r1FfoGp2waHBJHv
nUU1fprfgkBqtfMK4cei+IcY0RIOWyeG7hEjs1ooYjVKUI+VaWgpNEQzx1Hk
=p6YK
-----END PGP PUBLIC KEY BLOCK-----
